!!!SOCIAL_FUNCTION:	songs connected with legends
!!!PDT:	1929
!!!OTL: No_30_Lamenting_the_Dead_Eagles.krn
!!!REG: Southwest
!!!LANG: Non-Tone
!!!LING_GROUP: Uto-Aztecan
**kern
*staff1
*clefF4
*k[f#c#g#]
*M3/4
4F#\
=1
4.c#\
8A\
16c#\LK
8.c#\J
=2
4.A\
8G#\
16A\LK
8.A\J
=3
8G#\L
[8F#\J
8F#\L]
8F#\J
16G#\LK
8.F#\J
=4
4.F#\
8F#\
16F#\LK
8.F#\J
=5
2C#/
4F#\
=6
(4G#\
8F#\L)
8F#\J
16A\LK
8.A\J
=7
(4A\
8G#\L)
8F#\J
16G#\LK
8.F#\J
=8
4.F#\
8F#\
16F#\LK
8.F#\J
=9
*M2/4
2C#/
==
*-
